T: John Stenson's
M: 4/4
L: 1/8
K: Amaj
A2 cA B2 cB | A2 cA BAFB | ABcA BAcf | eAcA BAFB |AB (3cBA B^ABc | ABcA B2 AF | Addc d2 ed | ceBc A2 :|e2 cd eAcd | (3efe cA BA (3FGA | e2 cd eAcA | (3Bcd cA BAFA |eAcd eacd | eAcA BAFA | (3ddd (3edc dfaf | ceBc A2 :|
